rospo-icon-theme-classic-common/48x48/apps/scinotes.svg

<svg height="48" width="48" xmlns="http://www.w3.org/2000/svg"><path d="m40 42v-36c0-1.108-.892-2-2-2h-28c-1.108 0-2 .892-2 2v36c0 1.108.892 2 2 2h28c1.108 0 2-.892 2-2z" fill="#e74c3c"/><path d="m13 12v2h20v-2zm0 5v2h22v-2zm0 5v2h20v-2zm0 5v2h16v-2zm0 5v2h20v-2zm0 5v2h16v-2z" opacity=".2"/><path d="m13 11v2h20v-2zm0 5v2h22v-2zm0 5v2h20v-2zm0 5v2h16v-2zm0 5v2h20v-2zm0 5v2h16v-2z" fill="#fff"/><path d="m10 4c-1.108 0-2 .892-2 2v1c0-1.108.892-2 2-2h28c1.108 0 2 .892 2 2v-1c0-1.108-.892-2-2-2z" fill="#fff" opacity=".2"/><path d="m8 42v1c0 1.108.892 2 2 2h28c1.108 0 2-.892 2-2v-1c0 1.108-.892 2-2 2h-28c-1.108 0-2-.892-2-2z" opacity=".2"/></svg>

<svg xmlns="http://www.w3.org/2000/svg" width="48" height="48" version="1">
 <path d="m40 42v-36c0-1.108-0.892-2-2-2h-28c-1.108 0-2 0.892-2 2v36c0 1.108 0.892 2 2 2h28c1.108 0 2-0.892 2-2z" style="fill:#e74c3c"/>
 <path d="m 13,12 0,2 20,0 0,-2 -20,0 z m 0,5 0,2 22,0 0,-2 -22,0 z m 0,5 0,2 20,0 0,-2 -20,0 z m 0,5 0,2 16,0 0,-2 -16,0 z m 0,5 0,2 20,0 0,-2 -20,0 z m 0,5 0,2 16,0 0,-2 -16,0 z" style="opacity:0.2"/>
 <path style="fill:#ffffff" d="M 13 11 L 13 13 L 33 13 L 33 11 L 13 11 z M 13 16 L 13 18 L 35 18 L 35 16 L 13 16 z M 13 21 L 13 23 L 33 23 L 33 21 L 13 21 z M 13 26 L 13 28 L 29 28 L 29 26 L 13 26 z M 13 31 L 13 33 L 33 33 L 33 31 L 13 31 z M 13 36 L 13 38 L 29 38 L 29 36 L 13 36 z"/>
 <path fill="#fff" opacity=".2" d="m10 4c-1.108 0-2 0.892-2 2v1c0-1.108 0.892-2 2-2h28c1.108 0 2 0.892 2 2v-1c0-1.108-0.892-2-2-2z"/>
 <path opacity=".2" d="m8 42v1c0 1.108 0.892 2 2 2h28c1.108 0 2-0.892 2-2v-1c0 1.108-0.892 2-2 2h-28c-1.108 0-2-0.892-2-2z"/>
</svg>
